!!!COM: Haydn, Franz Joseph
!!!OTL: String Quartet in B-flat Major
!!!OPS: Opus 64
!!!ONM: No. 3
!!!OMD: Finale: Allegro con spirito
!!!OMV: 4
!!!SCT: H III:67
!!!SCA: Thematisch-bibliographisches Werkevererzeichnis (A. van Hoboken)
!!!YOR: Dover Edition; reprint of Eulenburg Edition
!!!ENC: Frances Bennion
!!!CDT: 1732/3/31/-1809/5/31/
!!!CNT: Oesterreich
!!!YEC: Copyright (c) 1994, 2000 Center for Computer Assisted Research in the Humanities
!!!YEM: Rights to all derivative editions reserved.
!!!YEM: Refer to licensing agreement for further details.
!!!YEN: United States of America
**kern	**kern	**kern	**kern
*k[b-e-]	*k[b-e-]	*k[b-e-]	*k[b-e-]
*B-:	*B-:	*B-:	*B-:
*clefF4	*clefC3	*clefF	*clefF
*M2/4	*M2/4	*M2/4	*M2/4
4.r	4.r	4.r	4.r
8BB-	8c	8e-	16ee-
.	.	.	16a
=1	=1	=1	=1
8BB-	8d	8f	8b-
8BB-	8c	8e-	16ff
.	.	.	16a
8BB-	8d	8f	8b-
8BB-	8c	8e-	16gg
.	.	.	16a
=2	=2	=2	=2
8BB-	8d	8f	8b-
4.r	4.r	4r	16aa
.	.	.	16ff
.	.	.	8bb-
.	.	[8dd	[8ff
=3	=3	=3	=3
4.AA	4.A	8dd]	8ff]
.	.	8cc#	8ee
.	.	8cc	8ee-
8BB-	8B-	8b-	8dd
=4	=4	=4	=4
4F	4f	8a	16cc
.	.	.	16b-
.	.	4r	16cc
.	.	.	16dd
8r	8r	.	8cc
8BB-	8c	8e-	16ee-
.	.	.	16a
=5	=5	=5	=5
8BB-	8d	8f	8b-
8BB-	8c	8e-	16ff
.	.	.	16a
8BB-	8d	8f	8b-
8BB-	8c	8e-	16gg
.	.	.	16a
=6	=6	=6	=6
8BB-	8d	8f	8b-
4.r	4.r	4r	16aa
.	.	.	16ff
.	.	.	8bb-
.	.	[8dd	[8ddd
=7	=7	=7	=7
4DD	[2B-	8dd]	8ddd]
.	.	4b-	4bb-
4D	.	.	.
.	.	[8f#	[8ff#
=8	=8	=8	=8
4E-	4.B-]	8f#]	8ff#]
.	.	4g	4gg
4E-	.	.	.
.	8G	16e-	16ee-
.	.	16c	16cc
=9	=9	=9	=9
4F	4F	8d	8b-
.	.	8d	8b-
4FF	4A	16e-	16cc
.	.	16d	16b-
.	.	16e-	16cc
.	.	16f	16dd
=10	=10	=10	=10
[2BB-	4B-	8d	4b-
.	.	4.r	.
.	4E-	.	8r
.	.	.	16c
.	.	.	16A
=11	=11	=11	=11
2BB-_	4D	4r	8B-
.	.	.	8d
.	4A-	[4d	8f
.	.	.	8f
=12	=12	=12	=12
2BB-_	2G	8d]	8.f
.	.	8e-	.
.	.	.	16g
.	.	8e-	8e-
.	.	8e-	16ee-
.	.	.	16cc
=13	=13	=13	=13
2BB-_	2A	2e- 2c	16b-
.	.	.	16a
.	.	.	16cc
.	.	.	16a
.	.	.	16g
.	.	.	16f
.	.	.	16cc
.	.	.	16e-
=14	=14	=14	=14
2BB-_	4B-	4B- 4d	16d
.	.	.	16f
.	.	.	16b-
.	.	.	16dd
.	8D	4r	8ff
.	8E-	.	16c
.	.	.	16A
=15	=15	=15	=15
2BB-_	4D	4r	8B-
.	.	.	8d
.	4A- 4d	4c-	8f
.	.	.	8f
=16	=16	=16	=16
2BB-_	8G 8d	4B-	8.f
.	8e-	.	.
.	.	.	16g
.	8G 8e-	4r	8e-
.	8e- 8G	.	16gg
.	.	.	16ff
=17	=17	=17	=17
2BB-_	2e- 2c	2a	16ee-
.	.	.	16dd
.	.	.	16cc
.	.	.	16b-
.	.	.	16a
.	.	.	16g
.	.	.	16f
.	.	.	16e-
=18	=18	=18	=18
4BB-]	4d 4B-	4b-	16d
.	.	.	16f
.	.	.	16b-
.	.	.	16dd
8r	8r	8r	8ff
8F	16A	16c	16ee-
.	16c	16e-	16a
=19	=19	=19	=19
4B-	4B-	4d	8b-
.	.	.	8dd
8r	8r	8r	8ff
8F	16A	16c	16ee-
.	16c	16e-	16a
=20	=20	=20	=20
4BB-	4B-	4d	8b-
.	.	.	8dd
8r	8r	8r	8gg
8B-	16c	16g	16ee
.	16g	16e	16cc
=21	=21	=21	=21
4A	4f	4f	8ff
.	.	.	8aa
8r	8r	8r	8ccc
8B-	16e	16g	16gg
.	16g	16b-	16ee
=22	=22	=22	=22
4A	4f	4cc	8ff
.	.	.	8aa
8r	4r	4r	8ccc
8F	.	.	16ccc
.	.	.	16aa
=23	=23	=23	=23
8E	[2c	2g	8bb-
8E	.	.	8bb-
8E	.	.	8gg
8E	.	.	8gg
=24	=24	=24	=24
8E	2c_	2g 2b-	8ee
8E	.	.	8ee
8E	.	.	8b-
8E	.	.	8b-
=25	=25	=25	=25
8F	2c_	2a 2f	8a
8F	.	.	8a
8F	.	.	8cc
8F	.	.	8cc
=26	=26	=26	=26
8F	2c]	2a	16ff
.	.	.	16ee
8F	.	.	16aa
.	.	.	16gg
8F	.	.	16ff
.	.	.	16ee
8F	.	.	16dd
.	.	.	16cc
=27	=27	=27	=27
8E	8c	8b-	16cc
.	.	.	16b-
8r	8r	8r	16a
.	.	.	16g
8E	8c	8b-	16f
.	.	.	16e
8r	8r	8r	16b-
.	.	.	16g
=28	=28	=28	=28
8E	8c	8g	16f
.	.	.	16e
8r	8r	8r	16g
.	.	.	16e
8E	8c	8g	16c
.	.	.	16B-
8r	8r	8r	16g
.	.	.	16B-
=29	=29	=29	=29
4F	4c	4a	16A
.	.	.	16cc
.	.	.	16cc
.	.	.	16cc
8r	8r	8r	16b
.	.	.	16cc
8G	8B-	8e-	16e-
.	.	.	16cc
=30	=30	=30	=30
4F#	4A	4d	16d
.	.	.	16dd
.	.	.	16dd
.	.	.	16dd
8r	8r	8r	16cc#
.	.	.	16dd
8F#	8d	8cc	16d
.	.	.	16cc
=31	=31	=31	=31
4G	4d	4b-	16d
.	.	.	16b-
.	.	.	16b-
.	.	.	16b-
8r	8r	8r	16cc
.	.	.	16b-
8F	8g	8g	16dd
.	.	.	16b-
=32	=32	=32	=32
2E	4.g	4.b-	16dd
.	.	.	16cc
.	.	.	16bb-
.	.	.	16gg
.	.	.	16bb-
.	.	.	16gg
.	8cc	8g	16ee
.	.	.	16b-
=33	=33	=33	=33
8F	2cc	2a	16a
.	.	.	16ff
8F	.	.	16ee
.	.	.	16ff
8F	.	.	16gg
.	.	.	16ff
8F	.	.	16aa
.	.	.	16gg
=34	=34	=34	=34
8D	4.f	2b	16ff
.	.	.	16ee
8D	.	.	16dd
.	.	.	16cc
8D	.	.	16b
.	.	.	16a
8D	8g	.	16g
.	.	.	16f
=35	=35	=35	=35
4C	4g	8cc	8e
.	.	8ee	8gg
4r	4r	8ee	8gg
.	.	8ff	8aa
=36	=36	=36	=36
8r	8r	8gg	8bb-
8e	8g	4.r	4.r
8e	8g	.	.
8f	8a	.	.
=37	=37	=37	=37
8g	8b-	8r	8r
4.r	4.r	8cc	8ee
.	.	8cc	8ee
.	.	8dd	8ff
=38	=38	=38	=38
8r	8r	8ee	8gg
8B-	8e	8cc	8gg
8B-	8e	8cc	8gg
8A	8f	8cc	8aa
=39	=39	=39	=39
4G	4e	4cc	4bb-
8r	8r	8r	8r
8G	8f	8dd-	8bb-
=40	=40	=40	=40
8G	8e	8cc	8bb-
8G	8f	8dd-	8bb-
8G	8e	8cc	8bb-
8G	8f	8dd-	8bb-
=41	=41	=41	=41
4G	4e	4cc	4bb-
8r	8r	8r	8r
8G	8f	8dd-	8bb-
=42	=42	=42	=42
8G	8e	8cc	8bb-
8G	8f	8dd-	8bb-
8G	8e	8cc	8bb-
8G	8f	8dd-	8bb-
=43	=43	=43	=43
4G	4e	4cc	4bb-
8r	8r	8r	8r
8G	8f	8dd-	8bb-
=44	=44	=44	=44
4G	4e	4cc	4bb-
8r	8r	8r	8r
8G	8f	8dd-	8bb-
=45	=45	=45	=45
8G	8e	8cc	8bb-
8r	8r	8r	8r
8G	8e	8cc	8bb-
8r	8r	8r	8r
=46	=46	=46	=46
8G	8e	8cc	8bb-
8r	8r	8r	8r
8G	8e	8cc	8bb-
8r	8r	8r	8r
=47	=47	=47	=47
[2A-	2e-	[2cc	2bb-
=48	=48	=48	=48
2A-]	[2f	2cc]	[2aa-
=49	=49	=49	=49
[2B-	2f]	2dd	2aa-]
=50	=50	=50	=50
2B-_	4e-	[2ee-	2gg
.	4g	.	.
=51	=51	=51	=51
2B-]	2b-	2ee-]	2ff
=52	=52	=52	=52
2B	2g	2dd	2ff
=53	=53	=53	=53
8c	8g	8ee	8ee
8c	8e	8g	16bb-
.	.	.	16gg
8c	16e	16g	16bb-
.	16g	16b-	16gg
8c	16f	16a	16aa
.	16a	16cc	16ff
=54	=54	=54	=54
4c	4g	4b-	16gg
.	.	.	16ee
.	.	.	16ff
.	.	.	16dd
4r	4r	4r	16ee
.	.	.	16cc
.	.	.	16dd
.	.	.	16b
=55	=55	=55	=55
8c	8e	8g	8cc
8c	8e	8g	16bb-
.	.	.	16gg
8c	16e	16g	16bb-
.	16g	16b-	16gg
8c	16f	16a	16aa
.	16a	16cc	16ff
=56	=56	=56	=56
4c	4g	4b-	16gg
.	.	.	16ee
.	.	.	16ff
.	.	.	16dd
4r	4r	4r	16ee
.	.	.	16cc
.	.	.	16dd
.	.	.	16b
=57	=57	=57	=57
8c	8e	8g	8cc
8c	8e	8g	16bb-
.	.	.	16gg
8c	16e	16g	16bb-
.	16g	16b-	16gg
8c	16f	16a	16aa
.	16a	16cc	16ff
=58	=58	=58	=58
4c	4g	4b-	16gg
.	.	.	16ee
.	.	.	16ff
.	.	.	16dd
4r	4r	4r	16ee
.	.	.	16cc
.	.	.	16dd
.	.	.	16b-
=59	=59	=59	=59
4.F	[2c	4.f	4.a
8E	.	8g	8b-
=60	=60	=60	=60
4.B-	4c]	4.e	8g
.	.	.	16dd
.	.	.	16cc
.	8r	.	8cc
8B-	8g	8e	8cc
=61	=61	=61	=61
4A	4a	4f	8.cc
.	.	.	16ff
8r	8r	8r	8cc
16E	8c	16g	16b-
16F	.	16f	16a
=62	=62	=62	=62
4.B-	4c	4.e	8g
.	.	.	16dd
.	.	.	16cc
.	8r	.	8cc
8B-	8g	8e	8cc
=63	=63	=63	=63
4A	4a	4f	8.cc
.	.	.	16ff
8r	8r	8r	8cc
8G#	8f	8f	8b
=64	=64	=64	=64
4A	4f	4f	16cc
.	.	.	16dd
.	.	.	16ee
.	.	.	16ff
8r	8r	8r	8cc
8F#	8c	8d	8a
=65	=65	=65	=65
8G	8B-	8d	8b-
8E	8c	8g	8g
8F	8F	8c	8a
8BB-	8B-	8d	8g
=66	=66	=66	=66
8C	8c	8A	8f
8C	8c	8A	8f
8C	8G	8B-	8e
8C	8G	8B-	8e
=67	=67	=67	=67
4FF	4A	8A	16f
.	.	.	16c
.	.	4r	16A
.	.	.	16c
4r	8r	.	16f
.	.	.	16a
.	8B-	16c	16g
.	.	16e	16e
=68	=68	=68	=68
2r	4A	8f	16a
.	.	.	16f
.	.	8g	16b-
.	.	.	16g
.	4r	8a	8cc
.	.	8a	[8aa
=69	=69	=69	=69
4FF	4F	8a	8aa]
.	.	4f	4ff
4AA	4A	.	.
.	.	[8c#	[8cc#
=70	=70	=70	=70
4BB-	4B-	8c#]	8cc#]
.	.	4d	4dd
4B-	4b-	.	.
.	.	16d	16b-
.	.	16B-	16g
=71	=71	=71	=71
4c	8r	4.A	4.f
.	8c	.	.
4C	8A	.	.
.	8E	16c	16a
.	.	16B-	16g
=72	=72	=72	=72
4F	4F	4A	16f
.	.	.	16c
.	.	.	16A
.	.	.	16c
4r	8r	8r	16f
.	.	.	16a
.	8B-	16c	16g
.	.	16e	16e
=73	=73	=73	=73
2r	4A	8f	16a
.	.	.	16f
.	.	8g	16b-
.	.	.	16g
.	4r	8a	8cc
.	.	[8a	[8aa
=74	=74	=74	=74
4FF	4F	8a]	8aa]
.	.	4b	4bb
4AA	4A	.	.
.	.	[8cc	[8ccc
=75	=75	=75	=75
4BB-	4B-	8cc]	8ccc]
.	.	8cc#	8ccc#
4B-	4b-	8dd	8ddd
.	.	16dd	16bb-
.	.	16b-	16gg
=76	=76	=76	=76
4c	8cc	4.a	4.ff
.	8a	.	.
4C	8f	.	.
.	16e	16b-	16gg
.	16g	16g	16ee
=77	=77	=77	=77
4F	4f	4a	8ff
.	.	.	16aa
.	.	.	16ee
8r	8r	8r	16ff
.	.	.	16cc#
16d	16dd	16dd	16dd
16A	16a	16a	16a
=78	=78	=78	=78
8B-	8b-	8b-	8b-
8G	8g	8g	8g
8c	8cc	8cc	8cc
8C	8c	8c	8c
=79	=79	=79	=79
8F	8f	8f	8f
8FF	8F	8ff	8ff
8r	8r	8r	8r
8r	8r	[8A	[8a
=80	=80	=80	=80
4FF	4F	8A]	8a]
.	.	4B-	4b-
4GG	4G	.	.
.	.	[8B	[8b
=81	=81	=81	=81
4AA	4A	8B]	8b]
.	.	8c	8cc
4r	4r	4r	8r
.	.	.	8ff
=82	=82	=82	=82
2C	2G	2B- 2e	16ee
.	.	.	16gg
.	.	.	16bb-
.	.	.	16gg
.	.	.	16ee
.	.	.	16cc
.	.	.	16b-
.	.	.	16g
=83	=83	=83	=83
4F	4A	4f 4A	8f
.	.	.	8aa
4r	4r	8r	8r
.	.	[8B-	[8b-
=84	=84	=84	=84
4GG	4G	8B-]	8b-]
.	.	4c	4cc
4AA	4A	.	.
.	.	[8c#	[8cc#
=85	=85	=85	=85
4BB-	4B-	8c#]	8cc#]
.	.	8d	8dd
4r	4r	4r	8r
.	.	.	8gg
=86	=86	=86	=86
8D	2A	2f# 2c	16ff#
.	.	.	16aa
8D	.	.	16ccc
.	.	.	16aa
8D	.	.	16ff#
.	.	.	16ee-
8D	.	.	16cc
.	.	.	16a
=87	=87	=87	=87
8D	2B-	2g 2B-	16b-
.	.	.	16dd
8D	.	.	16ff#
.	.	.	16gg
8D	.	.	16bb-
.	.	.	16gg
8D	.	.	16dd
.	.	.	16b-
=88	=88	=88	=88
8D	4.F#	2cc	16a
.	.	.	16cc
8D	.	.	16ee-
.	.	.	16cc
8D	.	.	16b-
.	.	.	16a
8D	8A	.	16g
.	.	.	16f#
=89	=89	=89	=89
8D	2G	2b-	16g
.	.	.	16b-
8D	.	.	16dd
.	.	.	16cc
8D	.	.	16b-
.	.	.	16a
8D	.	.	16g
.	.	.	16f#
=90	=90	=90	=90
8E-	2c#	2g	16g
.	.	.	16a
8E-	.	.	16b-
.	.	.	16g
8E-	.	.	16f
.	.	.	16e-
8E-	.	.	16d
.	.	.	16c#
=91	=91	=91	=91
4D	4d	8f#	8d
.	.	8f#	8a
4r	4r	8f#	8a
.	.	8g	8b-
=92	=92	=92	=92
8r	8r	8a	8cc
8F#	8A	4.r	4.r
8F#	8A	.	.
8G	8B-	.	.
=93	=93	=93	=93
8A	8c	8r	8r
4.r	4.r	8a	8cc
.	.	8a	8cc
.	.	8b-	8dd
=94	=94	=94	=94
8r	8r	8cc	8ee-
8A	8c	4.r	4.r
8A	8c	.	.
8B-	8d	.	.
=95	=95	=95	=95
8c	8e-	4.r	4.r
4r	4r	.	.
8C	8B-	8g	8ee-
=96	=96	=96	=96
8C	8A	8f#	8ee-
8C	8B-	8g	8ee-
8C	8A	8f#	8ee-
8C	8B-	8g	8ee-
=97	=97	=97	=97
4C	4A	4f#	4ee-
8r	8r	8r	8r
8C	8B-	8g	8ee-
=98	=98	=98	=98
8C	8A	8f#	8ee-
8C	8B-	8g	8ee-
8C	8A	8f#	8ee-
8C	8B-	8g	8ee-
=99	=99	=99	=99
4C	4A	4f#	4ee-
8r	8r	8r	8r
8C	8B-	8g	8ee-
=100	=100	=100	=100
4C	4A	4f#	4ee-
8r	8r	8r	8r
8C	8B-	8g	8ee-
=101	=101	=101	=101
8C	8A	8f#	8ee-
8r	8r	8r	8r
8C	8g-	8A	8ee-
8r	8r	8r	8r
=102	=102	=102	=102
8C	8g-	8A	8ee-
8r	8r	8r	8r
8C	8g-	8A	8ee-
8r	8r	8r	8r
=103	=103	=103	=103
[2D-	[2f	2A-	2ee-
=104	=104	=104	=104
2D-]	2f]	[2B-	[2dd-
=105	=105	=105	=105
[2E-	2g	2B-]	2dd-]
=106	=106	=106	=106
2E-_	[2a-	4A-	2cc
.	.	4c	.
=107	=107	=107	=107
2E-]	2a-]	2e-	[2b-
=108	=108	=108	=108
2E	[2g	[2c	2b-]
=109	=109	=109	=109
2F	2g]	2c]	[2a-
=110	=110	=110	=110
2D	[2f	[2B	2a-_
=111	=111	=111	=111
[2C	4f]	4B]	4a-]
.	8e	8c	8g
.	8f	8a-	8b
=112	=112	=112	=112
2C]	8e	8g	8cc
.	8f	8a-	8b
.	8e	8g	8cc
.	8f	8a-	8b
=113	=113	=113	=113
[2CC	4e	4g	4cc
.	8r	8r	8r
.	8F	8B	8a-
=114	=114	=114	=114
2CC_	8E	8c	8g
.	8F	8B	8a-
.	8E	8c	8g
.	8F	8B	8a-
=115	=115	=115	=115
4CC]	4E	4c	4g
8r	8r	8r	8r
8F	8G	8B-	16b-
.	.	.	16e
=116	=116	=116	=116
8F	8A	8c	8f
8F	8G	8B-	16cc
.	.	.	16e
8F	8A	8c	8f
8F	8G	8B-	16dd
.	.	.	16e
=117	=117	=117	=117
4F	4A	4c	8f
.	.	.	16ee
.	.	.	16cc
4r	4r	8r	8ff
.	.	[8a	[8cc
=118	=118	=118	=118
4.E	4.E	8a]	8cc]
.	.	8g#	8b
.	.	8g	8b-
8F	8F	8f	8a
=119	=119	=119	=119
4C	4c	8e	16g
.	.	.	16f
.	.	4r	16g
.	.	.	16a
4r	4r	.	8g
.	.	[8b-	[8dd
=120	=120	=120	=120
2r	8c	8b-]	8dd]
.	8d	4a	4cc
.	8e-	.	.
.	8e	8g	8b-
=121	=121	=121	=121
2r	4f	4f	16a
.	.	.	16g
.	.	.	16a
.	.	.	16b-
.	4r	8r	8a
.	.	[8cc	[8ee-
=122	=122	=122	=122
2r	8d	8cc]	8ee-]
.	8e	4b-	4dd
.	8f	.	.
.	8f#	8a	8cc
=123	=123	=123	=123
2r	4g	4g	16b-
.	.	.	16a
.	.	.	16b-
.	.	.	16cc
.	4r	4r	8b-
.	.	.	[8gg
=124	=124	=124	=124
4EE-	4B-	4.c#	8gg]
.	.	.	4ee-
4E-	4G	.	.
.	.	16b-	8cc#
.	.	16g	.
=125	=125	=125	=125
8D	4A	4f#	16dd
.	.	.	16cc#
4r	.	.	16dd
.	.	.	16cc#
.	8r	8r	8dd
[8D	8F#	8d	8r
=126	=126	=126	=126
8D]	4G	8e-	2r
8C#	.	8e	.
8r	4A	8f	.
8C	.	8f#	.
=127	=127	=127	=127
16BB-	4B-	4g	2r
16AA	.	.	.
16BB-	.	.	.
16C	.	.	.
8BB-	8r	8r	.
[8G	8B-	8g	.
=128	=128	=128	=128
8G]	4c	8a-	2r
4F#	.	8a	.
.	4d	8b-	.
8F	.	8b	.
=129	=129	=129	=129
16E	4e	4cc	4.r
16D	.	.	.
16E	.	.	.
16F	.	.	.
8E	8r	8r	.
8r	[8f	8a	8ff
=130	=130	=130	=130
2r	8f]	16cc	16aa
.	.	16b-	16gg
.	4e	16a	16ff
.	.	16b-	16gg
.	.	16dd	16bb-
.	.	16cc	16aa
.	8e-	16b-	16gg
.	.	16cc	16aa
=131	=131	=131	=131
4.r	4d	4dd	16bb-
.	.	.	16aa
.	.	.	16bb-
.	.	.	16ccc
.	8r	8r	8bb-
8D	8B-	16ff	8aa-
.	.	16dd	.
=132	=132	=132	=132
4E-	4B-	4b-	16gg
.	.	.	16ff#
.	.	.	16gg
.	.	.	16aa-
8r	8r	8r	8gg
8BB	8G	16dd	8ff
.	.	16b	.
=133	=133	=133	=133
4C	4G	4g	16ee-
.	.	.	16dd
.	.	.	16ee-
.	.	.	16ff
8r	8r	8r	8ee-
8AA	8e-	8f	8cc
=134	=134	=134	=134
4BB-	4d	4f	16dd
.	.	.	16cc
.	.	.	16dd
.	.	.	16ee-
8r	8r	8r	8dd
8GG	8e	8e	8b-
=135	=135	=135	=135
4FF	4f	4f	16a
.	.	.	16g
.	.	.	16f
.	.	.	16e
4r	4r	4r	16f
.	.	.	16g
.	.	.	16a
.	.	.	16b-
=136	=136	=136	=136
4FF	4c	4a	16cc
.	.	.	16b-
.	.	.	16a
.	.	.	16g
4r	4r	4r	16a
.	.	.	16b-
.	.	.	16cc
.	.	.	16dd
=137	=137	=137	=137
4FF	4A	4cc	8ee-
.	.	.	16ee-
.	.	.	16a
4r	4r	4r	8ee-
.	.	.	16ee-
.	.	.	16a
=138	=138	=138	=138
4.r	4.r	4.r	8ee-
.	.	.	16ee-
.	.	.	16a
.	.	.	8ee-
8BB-	8c	8e-	16ee-
.	.	.	16a
=139	=139	=139	=139
8BB-	8d	8f	8b-
8BB-	8c	8e-	16ff
.	.	.	16a
8BB-	8d	8f	8b-
8BB-	8c	8e-	16gg
.	.	.	16a
=140	=140	=140	=140
8BB-	8d	8f	8b-
4.r	4.r	4r	16aa
.	.	.	16ff
.	.	.	8bb-
.	.	[8dd	[8ff
=141	=141	=141	=141
4.AA	4.A	8dd]	8ff]
.	.	8cc#	8ee
.	.	8cc	8ee-
8BB-	8B-	8b-	8dd
=142	=142	=142	=142
4F	4f	8a	16cc
.	.	.	16b-
.	.	4r	16cc
.	.	.	16dd
8r	8r	.	8cc
8BB-	8c	8e-	16ee-
.	.	.	16a
=143	=143	=143	=143
8BB-	8d	8f	8b-
8BB-	8c	8e-	16ff
.	.	.	16a
8BB-	8d	8f	8b-
8BB-	8c	8e-	16gg
.	.	.	16a
=144	=144	=144	=144
8BB-	8d	8f	8b-
4.r	4.r	4r	16aa
.	.	.	16ff
.	.	.	8bb-
.	.	[8dd	[8ddd
=145	=145	=145	=145
4DD	[2B-	8dd]	8ddd]
.	.	4b-	4bb-
4D	.	.	.
.	.	[8f#	[8ff#
=146	=146	=146	=146
4E-	4.B-]	8f#]	8ff#]
.	.	4g	4gg
4E-	.	.	.
.	8G	16e-	16ee-
.	.	16c	16cc
=147	=147	=147	=147
4F	4F	8d	8b-
.	.	8d	8b-
4FF	4A	16e-	16cc
.	.	16d	16b-
.	.	16e-	16cc
.	.	16f	16dd
=148	=148	=148	=148
[2BB-	4B-	4d	4b-
.	4E-	4r	8r
.	.	.	16c
.	.	.	16A
=149	=149	=149	=149
2BB-_	4D	4r	8B-
.	.	.	8d
.	4A-	[4d	8f
.	.	.	8f
=150	=150	=150	=150
2BB-_	2G	8d]	8.f
.	.	8e-	.
.	.	.	16g
.	.	8e-	8e-
.	.	8e-	16ee-
.	.	.	16cc
=151	=151	=151	=151
2BB-_	2A	2e- 2c	16b-
.	.	.	16a
.	.	.	16cc
.	.	.	16a
.	.	.	16g
.	.	.	16f
.	.	.	16cc
.	.	.	16e-
=152	=152	=152	=152
2BB-_	4B-	4B- 4d	16d
.	.	.	16f
.	.	.	16b-
.	.	.	16dd
.	8D	4r	8ff
.	8E-	.	16c
.	.	.	16A
=153	=153	=153	=153
2BB-_	8D	4r	8B-
.	8r	.	8d
.	4d 4A-	4c-	8f
.	.	.	8f
=154	=154	=154	=154
2BB-_	8d 8G	4B-	8.f
.	8e-	.	.
.	.	.	16g
.	8e- 8G	4r	8e-
.	8e- 8G	.	16gg
.	.	.	16ff
=155	=155	=155	=155
2BB-_	2c 2e-	2a	16ee-
.	.	.	16dd
.	.	.	16cc
.	.	.	16b-
.	.	.	16a
.	.	.	16g
.	.	.	16f
.	.	.	16e-
=156	=156	=156	=156
4BB-]	4d 4B-	4b-	16d
.	.	.	16f
.	.	.	16b-
.	.	.	16dd
4r	4r	4r	8ff
.	.	.	16aa-
.	.	.	16gg
=157	=157	=157	=157
2BB	2d	2f 2A-	16ff
.	.	.	16ee-
.	.	.	16dd
.	.	.	16cc
.	.	.	16b
.	.	.	16a-
.	.	.	16g
.	.	.	16f
=158	=158	=158	=158
4.C	4G	4e- 4G	16e-
.	.	.	16g
.	.	.	16cc
.	.	.	16ee-
.	8c	8ee-	8gg
8BB-	8d	8dd	8gg
=159	=159	=159	=159
2AA	4.e-	2cc	16gg
.	.	.	16ff
.	.	.	16ccc
.	.	.	16bb-
.	.	.	16aa
.	.	.	16gg
.	8c	.	16ff
.	.	.	16ee-
=160	=160	=160	=160
2BB-	8B-	2dd	16dd
.	.	.	16ff
.	8d	.	16bb-
.	.	.	16ddd
.	8f	.	16ccc
.	.	.	16bb-
.	8f	.	16ddd
.	.	.	16ccc
=161	=161	=161	=161
2GG	4b-	2ee	16bb-
.	.	.	16aa
.	.	.	16gg
.	.	.	16ff
.	4cc	.	16ee
.	.	.	16dd
.	.	.	16cc
.	.	.	16b-
=162	=162	=162	=162
4FF	4f	8ff	8a
.	.	8a	8cc
4r	4r	8a	8cc
.	.	8b-	8dd
=163	=163	=163	=163
8r	8r	8cc	8ee-
8A	8c	4.r	4.r
8A	8c	.	.
8B-	8d	.	.
=164	=164	=164	=164
8c	8e-	8r	8r
4.r	4.r	8c	8a
.	.	8c	8a
.	.	8d	8b-
=165	=165	=165	=165
8r	8r	8e-	8cc
8e-	8f	8a	8cc
8e-	8f	8a	8cc
8d	8f	8b-	8dd
=166	=166	=166	=166
4c	4f	4a	4ee-
8r	8r	8r	8r
8B-	8d-	8g-	8ee-
=167	=167	=167	=167
8A	8c	8f	8ee-
8B-	8d-	8g-	8ee-
8A	8c	8f	8ee-
8B-	8d-	8g-	8ee-
=168	=168	=168	=168
4A	4c	4f	4ee-
8r	8r	8r	8r
8B-	8d-	8g-	8ee-
=169	=169	=169	=169
8A	8c	8f	8ee-
8B-	8d-	8g-	8ee-
8A	8c	8f	8ee-
8B-	8d-	8g-	8ee-
=170	=170	=170	=170
4A	4c	4f	4ee-
8r	8r	8r	8r
8B-	8d-	8g-	8ee-
=171	=171	=171	=171
4A	4c	4f	4ee-
8r	8r	8r	8r
8B-	8d-	8g-	8ee-
=172	=172	=172	=172
8A	8c	8f	8ee-
8r	8r	8r	8r
8A	8c	8f	8ee-
8r	8r	8r	8r
=173	=173	=173	=173
8A	8c	8f	8ee-
8r	8r	8r	8r
8A	8c	8f	8ee-
8r	8r	8r	8r
=174	=174	=174	=174
[2A-	[2c-	[2f	2ee-
=175	=175	=175	=175
2A-]	2c-]	2f]	[2dd
=176	=176	=176	=176
[2G	[2B-	[2e	2dd]
=177	=177	=177	=177
2G]	2B-]	2e]	[2dd-
=178	=178	=178	=178
[2F	[2A	[2e-	2dd-]
=179	=179	=179	=179
2F_	2A]	2e-]	[2cc
=180	=180	=180	=180
2F]	2B-	2d	2cc]
=181	=181	=181	=181
2E	2g	2d-	2b-
=182	=182	=182	=182
8F	8f	8c	8a
8F	8A	8c	16ee-
.	.	.	16cc
8F	16A	16c	16ee-
.	16c	16e-	16cc
8F	16B-	16d	16dd
.	16d	16f	16b-
=183	=183	=183	=183
4F	4c	4e-	16cc
.	.	.	16a
.	.	.	16b-
.	.	.	16g
4r	4r	4r	16a
.	.	.	16f
.	.	.	16g
.	.	.	16e
=184	=184	=184	=184
8F	8A	8c	8f
8F	8A	8c	16ee-
.	.	.	16cc
8F	16A	16c	16ee-
.	16c	16e-	16cc
8F	16B-	16d	16dd
.	16d	16f	16b-
=185	=185	=185	=185
4F	4c	4e-	16cc
.	.	.	16a
.	.	.	16b-
.	.	.	16g
4r	4r	4r	16a
.	.	.	16f
.	.	.	16g
.	.	.	16e
=186	=186	=186	=186
8F	4A	8c	8f
8F	.	8ee-	16gg
.	.	.	16ee-
8F	4r	8ee-	16gg
.	.	.	16ee-
8F	.	8dd	16ff
.	.	.	16dd
=187	=187	=187	=187
4F	2r	8cc	16ee-
.	.	.	16cc
.	.	8b-	16dd
.	.	.	16b-
4r	.	8a	16cc
.	.	.	16a
.	.	8g	16b-
.	.	.	16g
=188	=188	=188	=188
8F	8A	4f	8f
16F	16A	.	8gg
16A	16c	.	.
16F	16A	4r	8gg
16A	16c	.	.
16G	16B-	.	8gg
16B-	16d	.	.
=189	=189	=189	=189
16A	16c	2r	8gg
16c	16e-	.	.
16B-	16d	.	8gg
16d	16f	.	.
16c	16e-	.	8gg
16B-	16d	.	.
16A	16c	.	8gg
16G	16B-	.	.
=190	=190	=190	=190
4F	4A	2r	16gg
.	.	.	16ff
.	.	.	16ee
.	.	.	16ff
4r	4r	.	16ee
.	.	.	16ff
.	.	.	16ee
.	.	.	16ff
=191	=191	=191	=191
8r	8r	8r	8ccc
8F	8c	8e- 8a	4r
8F	8c	8a 8e-	.
8r	8r	8r	16ccc
.	.	.	16aa
=192	=192	=192	=192
8r	8r	8r	8eee-
8F	8c	8e- 8a	4r
8F	8c	8e- 8a	.
8r	8r	8r	16eee-
.	.	.	16ccc
=193	=193	=193	=193
8r	8r	8r	8aa
8F	8c	8a 8e-	4r
8F	8c	8a 8e-	.
8r	8r	8r	16ccc
.	.	.	16aa
=194	=194	=194	=194
2r	2r	2r	4ee-
.	.	.	4r
=195	=195	=195	=195
2r	2r	2r	2r
=196	=196	=196	=196
4.B-	[2f	4.b-	4.dd
8A	.	8cc	8ee-
=197	=197	=197	=197
4.e-	4f]	4.a	8cc
.	.	.	16gg
.	.	.	16ff
.	8r	.	8ff
8e-	8cc	8a	8ff
=198	=198	=198	=198
4d	4dd	4b-	8.ff
.	.	.	16bb-
8r	8r	8r	8ff
16A	8f	16cc	16ee-
16B-	.	16b-	16dd
=199	=199	=199	=199
4.e-	4f	4.a	8cc
.	.	.	16gg
.	.	.	16ff
.	8r	.	8ff
8e-	8cc	8a	8ff
=200	=200	=200	=200
4d	4dd	4b-	8.ff
.	.	.	16bb-
8r	8r	8r	8ff
8c#	8b-	8b-	8ee
=201	=201	=201	=201
4d	4b-	4b-	16ff
.	.	.	16gg
.	.	.	16aa
.	.	.	16bb-
8r	8r	8r	8ff
8B	8f	8g	8dd
=202	=202	=202	=202
8c	8e-	8g	8ee-
8A	8f	8cc	8cc
8B-	8B-	8f	8dd
8E-	8e-	8g	8cc
=203	=203	=203	=203
8F	8f	8d	8b-
8F	8f	8d	8b-
8F	8c	8e-	8a
8F	8c	8e-	8a
=204	=204	=204	=204
4BB-	4d	8d	16b-
.	.	.	16f
.	.	4r	16d
.	.	.	16f
4r	8r	.	16b-
.	.	.	16dd
.	8e-	16f	16cc
.	.	16a	16a
=205	=205	=205	=205
2r	4d	8b-	16dd
.	.	.	16b-
.	.	8cc	16ee-
.	.	.	16cc
.	4r	8dd	8ff
.	.	[8dd	[8ddd
=206	=206	=206	=206
4BB-	4B-	8dd]	8ddd]
.	.	4b-	4bb-
4D	4d	.	.
.	.	[8f#	[8ff#
=207	=207	=207	=207
4E-	4e-	8f#]	8ff#]
.	.	4g	4gg
4EE-	4E-	.	.
.	.	16g	16ee-
.	.	16e-	16cc
=208	=208	=208	=208
4FF	8F	4.d	4.b-
.	8f	.	.
4F	8d	.	.
.	8A	16f	16dd
.	.	16e-	16cc
=209	=209	=209	=209
4BB-	4B-	4d	16b-
.	.	.	16f
.	.	.	16d
.	.	.	16f
4r	8r	8r	16b-
.	.	.	16dd
.	8e-	16f	16cc
.	.	16a	16a
=210	=210	=210	=210
2r	4d	8b-	16dd
.	.	.	16b-
.	.	8cc	16ee-
.	.	.	16cc
.	4r	8dd	8ff
.	.	16b-	[8ddd
.	.	16dd	.
=211	=211	=211	=211
4BB-	8r	8ff	8ddd]
.	16f	4r	4bb-
.	16d	.	.
4D	8f	.	.
.	8r	16B-	[8ff
.	.	16b-	.
=212	=212	=212	=212
4E-	8r	8B-	8ff]
.	16B-	4r	8ff#
.	16d	.	.
4r	8e-	.	8gg
.	8r	16g	[8eee-
.	.	16cc	.
=213	=213	=213	=213
4E-	8r	8g	8eee-]
.	16g	4r	4ccc
.	16G	.	.
4E	8g	.	.
.	8r	16c	[8gg
.	.	16cc	.
=214	=214	=214	=214
4F	8r	8c	8gg]
.	16c	4r	8gg#
.	16e	.	.
4r	8f	.	8aa
.	8r	16a	[8fff
.	.	16dd	.
=215	=215	=215	=215
4F	8r	8a	8fff]
.	16a	4r	4ddd
.	16A	.	.
4F#	8a	.	.
.	8r	16d	8aa
.	.	16dd	.
=216	=216	=216	=216
4G	2r	16g	8bb-
.	.	16b-	.
.	.	16g	4eee-
.	.	16b-	.
4r	.	16f	.
.	.	16a	.
.	.	16f	8ddd
.	.	16a	.
=217	=217	=217	=217
2r	2r	16e-	8r
.	.	16g	.
.	.	16e-	4ccc
.	.	16g	.
.	.	16d	.
.	.	16f	.
.	.	16d	8bb-
.	.	16f	.
=218	=218	=218	=218
2r	2r	16c	8r
.	.	16e-	.
.	.	16c	4aa
.	.	16e-	.
.	.	16B-	.
.	.	16d	.
.	.	16B-	8gg
.	.	16d	.
=219	=219	=219	=219
2r	2r	16A	8r
.	.	16c	.
.	.	16A	4ff
.	.	16c	.
.	.	16G	.
.	.	16B-	.
.	.	16G	8ee
.	.	16B-	.
=220	=220	=220	=220
2F	2c	2A	2ee-
=221	=221	=221	=221
2G	2B-	2B-	2dd
=222	=222	=222	=222
4E-	4G	4c	16r
.	.	.	16g
.	.	.	16cc
.	.	.	16b
4r	4r	4r	16dd
.	.	.	16cc
.	.	.	16ee-
.	.	.	16dd
=223	=223	=223	=223
2r	2r	2r	16ff
.	.	.	16ee-
.	.	.	16gg
.	.	.	16ff#
.	.	.	16aa
.	.	.	16gg
.	.	.	16aa
.	.	.	16bb-
=224	=224	=224	=224
4F	4.f	4.d	4.b-
4FF	.	.	.
.	8A	16f	16dd
.	.	16e-	16cc
=225	=225	=225	=225
4BB-	4B-	4d	4b-
8r	8r	8r	8r
8BB-	8c	8e-	16ee-
.	.	.	16a
=226	=226	=226	=226
8BB-	8d	8f	8b-
8BB-	8c	8e-	16ff
.	.	.	16a
8BB-	8d	8f	8b-
8BB-	8c	8e-	16gg
.	.	.	16a
=227	=227	=227	=227
4BB-	8d	8f	8b-
.	4.r	4r	16aa
.	.	.	16ff
4r	.	.	8bb-
.	.	[8dd	[8ff
=228	=228	=228	=228
4.AA	4.A	8dd]	8ff]
.	.	8cc#	8ee
.	.	8cc	8ee-
8BB-	8B-	8b-	8dd
=229	=229	=229	=229
4F	4f	8a	16cc
.	.	.	16b-
.	.	4r	16cc
.	.	.	16dd
8r	8r	.	8cc
8BB-	8c	8e-	16ee-
.	.	.	16a
=230	=230	=230	=230
8BB-	8d	8f	8b-
8BB-	8c	8e-	16ff
.	.	.	16a
8BB-	8d	8f	8b-
8BB-	8c	8e-	16gg
.	.	.	16a
=231	=231	=231	=231
4BB-	8d	8f	8b-
.	4.r	4r	16aa
.	.	.	16ff
4r	.	.	8bb-
.	.	[8dd	[8ddd
=232	=232	=232	=232
4DD	[2B-	8dd]	8ddd]
.	.	4b-	4bb-
4D	.	.	.
.	.	[8f#	[8ff#
=233	=233	=233	=233
4E-	4.B-]	8f#]	8ff#]
.	.	4g	4gg
4E-	.	.	.
.	8G	16e-	16ee-
.	.	16c	16cc
=234	=234	=234	=234
4F	4F	8d	8b-
.	.	8d	8b-
4FF	4A	16e-	16cc
.	.	16d	16b-
.	.	16e-	16cc
.	.	16f	16dd
=235	=235	=235	=235
4BB-	8B-	8d	8b-
.	4r	4r	4r
8r	.	.	.
8F	16A	16c	16ee-
.	16c	16e-	16a
=236	=236	=236	=236
4B-	8B-	8d	8b-
.	4r	4r	4r
8r	.	.	.
8F	16A	8e-	16ff
.	16c	.	16a
=237	=237	=237	=237
4B-	8B-	8d	8b-
.	4.r	4.r	4.r
4r	.	.	.
=238	=238	=238	=238
2F	2A	2c 2e-	4.gg
.	.	.	8a
=239	=239	=239	=239
4B-	4B-	4d 4B-	4b-
4r	4r	4r	4r
=240	=240	=240	=240
2F	4.c	4.a	4.eee-
.	16A	16ee-	16ccc
.	16e-	16cc	16aa
=241	=241	=241	=241
4BB-	8d	8b-	8bb-
.	16B-	4ff	4ddd
.	16d	.	.
8r	8f	.	.
16F	8r	8ee-	8ccc
16A	.	.	.
=242	=242	=242	=242
4B-	8r	8dd	8bb-
.	16B-	4dd	4ff
.	16d	.	.
4r	8f	.	.
.	8cc	16f	8ee-
.	.	16a	.
=243	=243	=243	=243
8r	8b-	8b-	8dd
4d	4f	16b-	4.r
.	.	16dd	.
.	.	8ff	.
8c	8e-	16f	.
.	.	16a	.
=244	=244	=244	=244
8B-	8d	8b-	8r
4r	4d	4f	16b-
.	.	.	16dd
.	.	.	8ff
8F	8c	8e-	16f
.	.	.	16a
=245	=245	=245	=245
8BB-	8B-	8d	8b-
4.r	4.r	4.r	4.r
==	==	==	==
*-	*-	*-	*-
!!!RWG1: This file contains only pitch and duration data.
!!!RWG2: Transposing instruments are not transposed.
!!!RWG3: Spines may have incompatible meters.
!!!RWG4: Durations of rests and tied notes may be interpreted.
!!!RWG: Key is interpreted using the Humdrum key tool.
!!!GTL: 6 Quartetti ("Tost III")
!!!AFT: stage1
!!!END: 1997/04/15
!!!KEY: 1981858549
!!!EMD: Converted from MuseData to Humdrum Dec 16, 2000, by Andreas Kornstaedt using muse2kern.
!!!EMD: Manual editing by Craig Sapp, Nov 2001
